icons/brand/icon_bank-uralskiy_l_color.svg

<svg width="30" height="30" viewBox="0 0 30 30" xmlns="http://www.w3.org/2000/svg">
  <g fill-rule="nonzero" fill="none">
    <path d="M5.615 19.92c-.36-.632-.632-1.354-.632-2.167V8.907c-1.174.27-2.077 1.083-2.618 2.076v5.597c.715 1.42 1.85 2.587 3.25 3.34" fill="#D4132F"/>
    <path d="M6.066 7.823h2.618c.722 0 1.354-.632 1.354-1.354 0-.723-.632-1.264-1.354-1.264H6.066c-.985-.01-1.933.375-2.63 1.072-.696.696-1.082 1.644-1.07 2.63v1.173c.63-1.354 2.075-2.257 3.7-2.257" fill="#940449"/>
    <path d="M14.1 5.206v12.548c0 2.437-2.076 4.423-4.514 4.423-2.89 0-5.777-1.625-7.222-4.333.09 3.79 3.25 6.95 7.222 6.95 3.972 0 7.222-3.158 7.222-7.04v-9.93L14.1 5.206z" fill="#2865A7"/>
    <path d="M20.78 5.206H14.1l2.708 2.618h4.333c1.897 0 3.793.812 5.237 2.076-.542-2.708-2.798-4.694-5.597-4.694z" fill="#B10540"/>
    <path d="M26.106 12.88c.27-.723.36-1.626.36-2.077-.81-.722-1.985-1.444-3.25-1.805.362.45.633 1.264.633 1.896 0 .632-.182 1.174-.543 1.805-.36.54-.36 1.263.27 1.624 1.175.632 1.987 1.805 2.077 3.07.09.902-.09 1.895-.632 2.797 1.444-.72 2.618-1.895 3.25-3.25-.18-1.444-.812-2.798-2.166-4.06" fill="#D4132F"/>
    <path d="M21.773 22.086H17.53c-.722 0-1.354.632-1.354 1.354 0 .722.632 1.354 1.354 1.354h4.243c3.61 0 6.68-3.07 6.59-6.86-.903 2.347-3.34 4.152-6.59 4.152" fill="#940449"/>
  </g>
</svg>

<?xml version="1.0" encoding="UTF-8"?>
<svg width="30px" height="30px" viewBox="0 0 30 30" version="1.1" xmlns="http://www.w3.org/2000/svg" xmlns:xlink="http://www.w3.org/1999/xlink">
    <!-- Generator: Sketch 47.1 (45422) - http://www.bohemiancoding.com/sketch -->
    <title>icon_bank-uralskiy_l_color</title>
    <desc>Created with Sketch.</desc>
    <defs></defs>
    <g id="Page-1" stroke="none" stroke-width="1" fill="none" fill-rule="evenodd">
        <g id="icon_bank-uralskiy_l_color">
            <g>
                <rect id="_ph_" opacity="0" x="0" y="0" width="30" height="30"></rect>
                <path d="M5.615,19.92 C5.254,19.288 4.983,18.566 4.983,17.753 L4.983,8.907 C3.809,9.178 2.906,9.99 2.365,10.983 L2.365,16.58 C3.07985223,18.0005122 4.2145395,19.1666216 5.615,19.92" id="Shape" fill="#D4132F" fill-rule="nonzero"></path>
                <path d="M6.066,7.823 L8.684,7.823 C9.406,7.823 10.038,7.191 10.038,6.469 C10.038,5.747 9.406,5.206 8.684,5.206 L6.066,5.206 C5.08107392,5.19490347 4.13324903,5.58126481 3.43675692,6.27775692 C2.74026481,6.97424903 2.35390347,7.92207392 2.365,8.907 L2.365,10.081 C2.997,8.726 4.441,7.823 6.066,7.823" id="Shape" fill="#940449" fill-rule="nonzero"></path>
                <path d="M14.1,5.206 L14.1,17.754 C14.1,20.191 12.024,22.177 9.586,22.177 C6.697,22.177 3.809,20.552 2.364,17.844 C2.454,21.635 5.614,24.795 9.586,24.795 C13.558,24.795 16.808,21.636 16.808,17.754 L16.808,7.824 L14.1,5.206 Z" id="Shape" fill="#2865A7" fill-rule="nonzero"></path>
                <path d="M20.78,5.206 L14.1,5.206 L16.808,7.824 L21.141,7.824 C23.037,7.823 24.933,8.636 26.377,9.9 C25.835,7.192 23.579,5.206 20.78,5.206 Z" id="Shape" fill="#B10540" fill-rule="nonzero"></path>
                <path d="M26.106,12.879 C26.377,12.157 26.467,11.254 26.467,10.803 C25.655,10.081 24.481,9.359 23.217,8.998 C23.578,9.449 23.849,10.262 23.849,10.894 C23.849,11.526 23.668,12.068 23.307,12.699 C22.946,13.241 22.946,13.963 23.578,14.324 C24.752,14.956 25.564,16.129 25.654,17.393 C25.744,18.296 25.564,19.289 25.022,20.191 C26.466,19.469 27.64,18.295 28.272,16.941 C28.092,15.496 27.46,14.142 26.106,12.879" id="Shape" fill="#D4132F" fill-rule="nonzero"></path>
                <path d="M21.773,22.086 L17.53,22.086 C16.808,22.086 16.176,22.718 16.176,23.44 C16.176,24.162 16.808,24.794 17.53,24.794 L21.773,24.794 C25.384,24.794 28.453,21.725 28.363,17.933 C27.46,20.281 25.023,22.086 21.773,22.086" id="Shape" fill="#940449" fill-rule="nonzero"></path>
            </g>
        </g>
    </g>
</svg>
